!!!!SEGMENT: pl-kk--kk-i-389--015_anonim--deo-gratias-paschale-no-5.krn
!!!cenid: 17xx:2534
!!!COM: Anonim
!!!COM-rismID: pe30004985
!!!CDT:
!!!CNT:
!!!OTL: Deo gratias Paschale No. 5
!!!PDT:
!!!AGN: Sacred
!!!YEC: Copyright 2022 Narodowy Instytut Fryderyka Chopina (https://polishscores.org)
!!!YEM: License CC-BY-4.0 (https://creativecommons.org/licenses/by/4.0)
!!!SMS-siglum: PL-Kk
!!!SMS-shelfmark: Kk.I.389
!!!SMS-variant:
!!!SMS-altvar:
!!!SMS-shelfwork: 015 W
!!!NIFC-rismSourceID: 1001146182
!!!NIFC-rismChildID: 1001147259
!!!NIFC-islandoraID: pl-kk:6976
!!!URL-pdf-islandora: https://repozytorium.nifc.pl/islandora/object/pl-kk%3A6976/datastream/PDF/view
!!!URL-scan: https://polish.musicsources.pl/pl/lokalizacje/galeria/rekopisy/5999/1 @EN{Scan on Polish Music Sources Website} @PL{Skany w portalu Dziedzictwo Muzyki Polskiej w otwartym dostępie}
!!!IIIF:
!!!ONB-nifc: UWAGA: 5 Deo Gratias w zakresie skanów: S – 18-19, A – 37-38, T – 56-57, B – 75-76. Każdy numer w osobnym pliku.
!!!AIN: 1 alto 1 bass 1 soprn 1 tenor
!!!key:
**kern	**text	**kern	**text	**kern	**text	**kern	**text
*part4	*part4	*part3	*part3	*part2	*part2	*part1	*part1
*staff4	*staff4	*staff3	*staff3	*staff2	*staff2	*staff1	*staff1
*I"Basso.	*	*I"Tenore.	*	*I"Alto.	*	*I"Soprano	*
*I'B	*	*I'T	*	*I'A	*	*I'S	*
*ICvox	*	*ICvox	*	*ICvox	*	*ICvox	*
*Ibass	*	*Itenor	*	*Ialto	*	*Isoprn	*
*clefF4	*	*clefC4	*	*clefC3	*	*clefC1	*
*k[]	*	*k[]	*	*k[]	*	*k[]	*
*C:	*	*C:	*	*C:	*	*C:	*
*M2/2	*	*M2/2	*	*M2/2	*	*M2/2	*
*met(C.)	*	*met(C.)	*	*met(C.)	*	*met(C.)	*
=1	=1	=1	=1	=1	=1	=1	=1
*	*	*	*	*	*	*all\right:global	*
!	!	!LO:TX:a:t=2	!	!LO:TX:a:t=5.	!	!	!
0r	.	0r	.	00r	.	1cc	De-
=2-	=2	=2-	=2	=2-	=2	=2	=2
.	.	.	.	.	.	1dd	.
=3-	=3	=3	=3	=3-	=3	=3	=3
1r	.	1c	De-	.	.	1cc	.
=4	=4	=4	=4	=4-	=4	=4	=4
1G	De-	1d	.	.	.	1b	-o
=5	=5	=5	=5	=5-	=5	=5	=5
1A	.	1c	.	1r	.	4a\	gra-
.	.	.	.	.	.	4b\	.
.	.	.	.	.	.	4cc\	.
.	.	.	.	.	.	4a\	.
=6	=6	=6	=6	=6	=6	=6	=6
1G	.	1B	.	1g	De-	4b\	.
.	.	.	.	.	.	4g\	.
*	*	*	*	*	*	*2\right	*
.	.	.	.	.	.	2dd\	.
=7	=7	=7	=7	=7	=7	=7	=7
1F	-o	1A	.	1a	.	2dd\	.
.	.	.	.	.	.	2dd\	-ti-
=8	=8	=8	=8	=8	=8	=8	=8
*2\right	*	*	*	*2\right	*	*	*
2E\	gra-	0c	-o	2g\	.	2g\	-as,
2A\	.	.	.	2e\	.	[y2cc\	De-
=9	=9	=9-	=9	=9	=9	=9	=9
!LO:TX:t=P:problem:zbyt długa nuta w T	!	!LO:TX:t=P:problem:zbyt długa nuta	!	!LO:TX:t=P:problem:zbyt długa nuta w T	!	!LO:TX:t=P:problem:zbyt długa nuta w T	!
1ryy	.	.	.	1r	.	1ryy	.
=10	=10	=10	=10	=10	=10	=10	=10
!	!	!	!	!	!	!LO:N:xstem:cue	!
!	!	!	!	!	!	!LO:N:vis=4	!
4A\	.	1A	gra-	2e\	.	4cc\]	.
4G\	.	.	.	.	.	4b\	.
4F\	.	.	.	2f\	-o	2a\	-o
4D\	.	.	.	.	.	.	.
!LO:LB:g=original	!	!	!	!	!	!	!
=11	=11	=11	=11	=11	=11	=11	=11
4E\	.	1c	.	4g\	gra-	4g\	gra-
4D\	.	.	.	4f\	.	4a\	.
4E\	.	.	.	2e\	.	4b\	.
4F\	.	.	.	.	.	4a\	.
!	!	!LO:LB:g=original	!	!	!	!LO:LB:g=original	!
=12	=12	=12	=12	=12	=12	=12	=12
2G\	.	1G	.	2d\	.	2b\	.
2C/	.	.	.	2e\	.	2cc\	.
=13	=13	=13	=13	=13	=13	=13	=13
2.F\	.	1Fn	.	2.c\	.	2.a\	.
4F\	-ti-	.	.	4c\	-ti-	4a\	-ti-
=14	=14	=14	=14	=14	=14	=14	=14
2F\	-as	1A	.	2c\	-as,	2g\	-as
2D\	De-	.	.	2f\	De-	4dd\	De-
.	.	.	.	.	.	4ee\	.
!	!	!	!	!LO:LB:g=original	!	!	!
=15	=15	=15	=15	=15	=15	=15	=15
2D\	.	1B	.	2f\	.	2dd\	.
2E\	.	.	.	2g\	.	2ee\	-o
=16	=16	=16	=16	=16	=16	=16	=16
2E\	.	1c	.	2g\	.	2ee\	gra-
2F\	.	.	.	2a\	.	2a\	.
=17	=17	=17	=17	=17	=17	=17	=17
2F\	.	1B	.	1g	-o	2b\	.
2E\	.	.	.	.	.	2cc\	.
=18	=18	=18	=18	=18	=18	=18	=18
2E\	.	1A	.	1f	gra-	2a\	.
2D\	.	.	.	.	.	2b\	.
!LO:LB:g=original	!	!	!	!	!	!	!
=19	=19	=19	=19	=19	=19	=19	=19
2D\	.	1G	.	4e\	.	2g\	.
.	.	.	.	4d\	.	.	.
2C/	-o	.	.	4e\	.	2cc\	.
.	.	.	.	4f\	.	.	.
=20	=20	=20	=20	=20	=20	=20	=20
2C/	gra-	[y1A	.	2e\	.	2a\	.
2D\	.	.	.	2f#X\	.	2dd\	-ti-
!	!	!	!	!LO:LB:g=original	!	!LO:LB:g=original	!
=21	=21	=21	=21	=21	=21	=21	=21
!	!	!LO:N:xstem:cue	!	!	!	!	!
!	!	!LO:N:vis=4	!	!	!	!	!
2.D\	.	2A\]	.	2g\	.	1dd	-as,
*	*	*2\right	*	*	*	*	*
.	.	2A\	-ti-	2f#X\	-ti-	.	.
4D\	-ti-	.	.	.	.	.	.
=22	=22	=22	=22	=22	=22	=22	=22
2GG/	-as	0G	-as.	2g\	-as	2dd\	De-
2C/	De-	.	.	2e\	De-	2cc\	.
=23	=23	=23-	=23	=23	=23	=23	=23
2C/	.	.	.	2e\	.	2cc\	.
2BB/	-o	.	.	2d\	-o	2g\	-o
!	!	!	!	!LO:LB:g=original	!	!	!
=24	=24	=24	=24	=24	=24	=24	=24
!	!	!LO:N:vis=0	!	!	!	!	!
[y1C	gra-	00G	.	4c\	gra-	4cc\	gra-
.	.	.	.	4d\	.	4dd\	.
.	.	.	.	4e\	.	4ee\	.
.	.	.	.	4d\	.	4dd\	.
=25	=25	=25-	=25	=25	=25	=25	=25
!LO:N:xstem:cue	!	!	!	!	!	!	!
!LO:N:vis=4	!	!	!	!	!	!	!
2C/]	.	.	.	2.c\	.	2.cc\	.
2C/	-ti-	.	.	.	.	.	.
.	.	.	.	4c\	-ti-	4cc\	-ti-
=26	=26	=26-	=26	=26	=26	=26	=26
0GG	-as.	.	.	0B	-as.	0b	-as.
==	==	==	==	==	==	==	==
*-	*-	*-	*-	*-	*-	*-	*-
!!!system-decoration: [(s1,s2,s3,s4)]
!!!ENC: Anastazja Marusiak
!!!END: 2023-11-13
!!!YEM: Copyright © 2023 by [Copyright Holder]
!!!ENC: Leszek Kubiak
!!!END: 2024-01-22
